COLOR/action 16/16/media-record.svg

<svg height="16" width="16" xmlns="http://www.w3.org/2000/svg"><path d="m7.9982.5036c-4.1372 0-7.4982 3.3609-7.4982 7.4982 0 4.1372 3.3609 7.4982 7.4982 7.4982 4.1372 0 7.4982-3.3609 7.4982-7.4982 0-4.1372-3.3609-7.4982-7.4982-7.4982z" fill="#da1636"/><path d="m7.9980469.50390625c-4.1372 0-7.4980469 3.36074685-7.4980469 7.49804685 0 .0844484.01089323.1662204.01367188.25.13335359-4.0207459 3.43162342-7.2480469 7.48437502-7.2480469 4.0528491 0 7.3510251 3.227391 7.4843751 7.2480469.002779-.0837815.013672-.1655495.013672-.25 0-4.1372-3.360747-7.49804685-7.4980471-7.49804685z" fill="#fff" opacity=".3"/><path d="m.51367188 7.7519531c-.00277873.0837815-.01367188.1655496-.01367188.25 0 4.1371999 3.3607469 7.4980469 7.4980469 7.4980469 4.1372001 0 7.4980471-3.360747 7.4980471-7.4980469 0-.0844484-.010893-.1662204-.013672-.25-.133354 4.0207459-3.431624 7.2480469-7.4843751 7.2480469-4.0528496 0-7.35102531-3.227391-7.48437502-7.2480469z" opacity=".2"/></svg>

<?xml version="1.0" encoding="UTF-8" standalone="no"?>
<!-- Created with Inkscape (http://www.inkscape.org/) -->

<svg
   xmlns:dc="http://purl.org/dc/elements/1.1/"
   xmlns:cc="http://creativecommons.org/ns#"
   xmlns:rdf="http://www.w3.org/1999/02/22-rdf-syntax-ns#"
   xmlns:svg="http://www.w3.org/2000/svg"
   xmlns="http://www.w3.org/2000/svg"
   xmlns:sodipodi="http://sodipodi.sourceforge.net/DTD/sodipodi-0.dtd"
   xmlns:inkscape="http://www.inkscape.org/namespaces/inkscape"
   id="svg2413"
   width="16"
   height="16"
   version="1.0"
   sodipodi:docname="media-record.svg"
   inkscape:version="0.92.4 (5da689c313, 2019-01-14)">
  <metadata
     id="metadata20">
    <rdf:RDF>
      <cc:Work
         rdf:about="">
        <dc:format>image/svg+xml</dc:format>
        <dc:type
           rdf:resource="http://purl.org/dc/dcmitype/StillImage" />
      </cc:Work>
    </rdf:RDF>
  </metadata>
  <sodipodi:namedview
     pagecolor="#ffffff"
     bordercolor="#666666"
     borderopacity="1"
     objecttolerance="10"
     gridtolerance="10"
     guidetolerance="10"
     inkscape:pageopacity="0"
     inkscape:pageshadow="2"
     inkscape:window-width="1920"
     inkscape:window-height="1016"
     id="namedview18"
     showgrid="false"
     inkscape:zoom="14.75"
     inkscape:cx="8"
     inkscape:cy="8"
     inkscape:window-x="0"
     inkscape:window-y="27"
     inkscape:window-maximized="1"
     inkscape:current-layer="layer1" />
  <defs
     id="defs2415">
    <linearGradient
       id="linearGradient2411"
       x1="18.379"
       x2="18.379"
       y1="44.98"
       y2="3.0816"
       gradientTransform="matrix(.36857 0 0 .36857 -.84577 -.84577)"
       gradientUnits="userSpaceOnUse">
      <stop
         id="stop2492"
         style="stop-color:#791235"
         offset="0" />
      <stop
         id="stop2494"
         style="stop-color:#dd3b27"
         offset="1" />
    </linearGradient>
    <radialGradient
       id="radialGradient2409"
       cx="23.896"
       cy="3.99"
       r="20.397"
       gradientTransform="matrix(0 .87966 -1.1611 0 12.633 -21.084)"
       gradientUnits="userSpaceOnUse">
      <stop
         id="stop3244"
         style="stop-color:#f8b17e"
         offset="0" />
      <stop
         id="stop3246"
         style="stop-color:#e35d4f"
         offset=".26238" />
      <stop
         id="stop3248"
         style="stop-color:#c6262e"
         offset=".66094" />
      <stop
         id="stop3250"
         style="stop-color:#690b54"
         offset="1" />
    </radialGradient>
    <linearGradient
       id="linearGradient2406"
       x1="63.397"
       x2="63.397"
       y1="-12.489"
       y2="5.4676"
       gradientTransform="matrix(.74324 0 0 .74322 -38.23 10.609)"
       gradientUnits="userSpaceOnUse">
      <stop
         id="stop4875"
         style="stop-color:#fff"
         offset="0" />
      <stop
         id="stop4877"
         style="stop-color:#fff;stop-opacity:0"
         offset="1" />
    </linearGradient>
  </defs>
  <g
     id="layer1">
    <path
       id="path2555"
       d="M 7.9982,0.5036 C 3.861,0.5036 0.5,3.8645 0.5,8.0018 0.5,12.139 3.8609,15.5 7.9982,15.5 c 4.1372,0 7.4982,-3.3609 7.4982,-7.4982 0,-4.1372 -3.3609,-7.4982 -7.4982,-7.4982 z"
       style="fill:#da1636;fill-opacity:1;stroke:none;stroke-width:1.00370002;stroke-linecap:round;stroke-linejoin:round"
       inkscape:connector-curvature="0" />
    <path
       style="fill:#ffffff;fill-opacity:1;stroke:none;stroke-width:1.00370002;stroke-linecap:round;stroke-linejoin:round;opacity:0.3"
       d="M 7.9980469 0.50390625 C 3.8608469 0.50390625 0.5 3.8646531 0.5 8.0019531 C 0.5 8.0864015 0.51089323 8.1681735 0.51367188 8.2519531 C 0.64702547 4.2312072 3.9452953 1.0039062 7.9980469 1.0039062 C 12.050896 1.0039062 15.349072 4.2312972 15.482422 8.2519531 C 15.485201 8.1681716 15.496094 8.0864036 15.496094 8.0019531 C 15.496094 3.8647531 12.135347 0.50390625 7.9980469 0.50390625 z "
       id="path833" />
    <path
       style="fill:#000000;fill-opacity:1;stroke:none;stroke-width:1.00370002;stroke-linecap:round;stroke-linejoin:round;opacity:0.2"
       d="M 0.51367188 7.7519531 C 0.51089315 7.8357346 0.5 7.9175027 0.5 8.0019531 C 0.5 12.139153 3.8607469 15.5 7.9980469 15.5 C 12.135247 15.5 15.496094 12.139253 15.496094 8.0019531 C 15.496094 7.9175047 15.485201 7.8357327 15.482422 7.7519531 C 15.349068 11.772699 12.050798 15 7.9980469 15 C 3.9451973 15 0.64702159 11.772609 0.51367188 7.7519531 z "
       id="path838" />
  </g>
</svg>
